X: 20864
M: 6/8
L: 1/8
K: F
V: 1 name="4"
c |\
f2e d2c | c3 A2A | B2d c2B | A3 z2c |\
a2g fed | c3 A2c | d2g fed | f3 z2 H|]
c |\


